build/security/LockSolid.svg

<svg xmlns="http://www.w3.org/2000/svg" fill="none" viewBox="0 0 24 24" focusable="false"><path d="M0 0H24V24H0z"/><path fill="#74767B" fill-rule="evenodd" d="M8.01561 9.00002L8.0156 7.08429C8.0156 4.89046 9.79406 3.112 11.9879 3.112C14.1817 3.112 15.9602 4.89045 15.9602 7.08429L15.9602 9.00002L16 9.00002C17.6569 9.00002 19 10.3432 19 12L19 17C19 18.6569 17.6569 20 16 20L8 20C6.34315 20 5 18.6569 5 17L5 12C5 10.3432 6.34315 9.00002 8 9.00002L8.01561 9.00002ZM9.3456 7.08429C9.3456 5.625 10.5286 4.442 11.9879 4.442C13.4472 4.442 14.6302 5.62499 14.6302 7.08429L14.6302 9.00002L9.34561 9.00002L9.3456 7.08429ZM12 12.9918C12.359 12.9918 12.65 13.2828 12.65 13.6418L12.65 15.3582C12.65 15.7172 12.359 16.0082 12 16.0082C11.641 16.0082 11.35 15.7172 11.35 15.3582L11.35 13.6418C11.35 13.2828 11.641 12.9918 12 12.9918Z"/></svg>

<svg xmlns="http://www.w3.org/2000/svg" fill="none" viewBox="0 0 24 24" focusable="false"><path fill="#74767B" fill-rule="evenodd" d="M8.01 9V7.08a3.975 3.975 0 0 1 7.95 0V9H16c1.65 0 3 1.34 3 3v5c0 1.65-1.35 3-3 3H8c-1.66 0-3-1.35-3-3v-5c0-1.66 1.34-3 3-3zm1.33-1.92a2.646 2.646 0 0 1 5.29 0V9H9.34zM12 12.99c.35 0 .65.29.65.65v1.71c0 .36-.3.65-.65.65-.36 0-.65-.29-.65-.65v-1.71c0-.36.29-.65.65-.65"/></svg>
